fs/video_person_sparkle_28_regular.svg

<svg viewBox="0 0 28 28" fill="none" xmlns="http://www.w3.org/2000/svg" height="1em" width="1em">
  <path d="M2.22666 8.77971C2.15826 8.71838 2.08617 8.66128 2.01079 8.60876L2.0028 8.59777C1.80843 8.4403 1.58878 8.31692 1.35319 8.23287L0.282831 7.88497C0.200323 7.85598 0.128776 7.80221 0.0779565 7.73102C0.0271353 7.65948 -0.000117181 7.57387 3.78746e-07 7.4861C-0.000109105 7.39864 0.0271525 7.31334 0.0779565 7.24217C0.128998 7.17097 0.200436 7.11694 0.282831 7.08722L1.35319 6.73932C1.62642 6.64148 1.87748 6.49026 2.09175 6.29445C2.10773 6.2802 2.12483 6.26762 2.14184 6.25511C2.16419 6.23867 2.18638 6.22234 2.20568 6.20248C2.43726 5.96683 2.61313 5.68228 2.72037 5.36973L2.72936 5.34274L3.07815 4.27206C3.10786 4.19126 3.16157 4.1215 3.23206 4.07212C3.30358 4.02128 3.38917 3.99402 3.47691 3.99414C3.56434 3.99403 3.64961 4.0213 3.72077 4.07212C3.77203 4.11411 3.81276 4.16752 3.8397 4.22807C3.84385 4.23638 3.85034 4.24319 3.85681 4.24998C3.86437 4.25792 3.87191 4.26582 3.87567 4.27605L4.22346 5.34673C4.26211 5.44991 4.30821 5.55015 4.36138 5.64665C4.46373 5.85591 4.59866 6.04757 4.76114 6.21448C5.00379 6.45713 5.29985 6.63961 5.62562 6.74731L6.69598 7.09521L6.71796 7.10121C6.79873 7.13093 6.86848 7.18465 6.91784 7.25517C6.96867 7.32671 6.99591 7.41233 6.9958 7.5001C6.99591 7.58755 6.96865 7.67284 6.91784 7.74402C6.86826 7.81455 6.79862 7.86854 6.71796 7.89897L5.64661 8.24687C5.32103 8.35437 5.02526 8.5369 4.78313 8.77971C4.54032 9.02204 4.35756 9.31784 4.24945 9.64345L3.90066 10.7141L3.89066 10.7401C3.87107 10.7858 3.84368 10.8278 3.80971 10.8641C3.79061 10.8842 3.76952 10.9023 3.74675 10.9181C3.67611 10.9675 3.59212 10.9944 3.5059 10.995C3.41847 10.9952 3.33319 10.9679 3.26204 10.9171C3.19099 10.868 3.13688 10.7982 3.10713 10.7171L2.75934 9.64645C2.68057 9.40825 2.56196 9.18515 2.40856 8.98665C2.35226 8.91398 2.29151 8.84487 2.22666 8.77971ZM5.00562 4.00013H22.9948C23.3891 3.99921 23.7798 4.07611 24.1443 4.22642C24.5089 4.37672 24.8402 4.59749 25.1194 4.87607C25.3985 5.15466 25.62 5.48558 25.7711 5.84991C25.9222 6.21423 26 6.60479 26 6.99923V20.995C26 21.7904 25.6841 22.5533 25.1218 23.1157C24.5596 23.6782 23.797 23.9941 23.0018 23.9941H5.01261C4.21744 23.9941 3.45484 23.6782 2.89256 23.1157C2.33029 22.5533 2.01441 21.7904 2.01441 20.995V10.5772L2.16033 11.026C2.2576 11.3142 2.44375 11.5641 2.692 11.7398C2.93124 11.9084 3.21689 11.9985 3.50951 11.9977V20.995C3.50951 21.3927 3.66745 21.7742 3.94859 22.0554C4.22972 22.3366 4.61103 22.4946 5.00861 22.4946H8.25267V18.4958C8.25267 17.9655 8.46325 17.457 8.8381 17.082C9.21295 16.707 9.72135 16.4964 10.2515 16.4964H17.747C18.2771 16.4964 18.7855 16.707 19.1603 17.082C19.5352 17.457 19.7458 17.9655 19.7458 18.4958V22.4946H22.9948C23.3924 22.4946 23.7737 22.3366 24.0548 22.0554C24.336 21.7742 24.4939 21.3927 24.4939 20.995V6.99923C24.4939 6.60152 24.336 6.22011 24.0548 5.93889C23.7737 5.65767 23.3924 5.49968 22.9948 5.49968H5.46534C5.33493 5.36992 5.2361 5.21189 5.17651 5.03782L4.84471 4.01713C4.86905 4.0158 4.8926 4.01232 4.91607 4.00885C4.9456 4.00448 4.97499 4.00013 5.00562 4.00013ZM9.75176 22.4946H18.2467V18.4958C18.2467 18.3632 18.194 18.2361 18.1003 18.1423C18.0066 18.0486 17.8795 17.9959 17.747 17.9959H10.2515C10.1189 17.9959 9.99183 18.0486 9.89812 18.1423C9.80441 18.2361 9.75176 18.3632 9.75176 18.4958V22.4946ZM17.4973 11.4979C17.4973 10.5699 17.1288 9.67996 16.4728 9.02378C15.8168 8.3676 14.9271 7.99895 13.9994 7.99895C13.0717 7.99895 12.182 8.3676 11.526 9.02378C10.87 9.67996 10.5015 10.5699 10.5015 11.4979C10.5015 12.4259 10.87 13.3159 11.526 13.972C12.182 14.6282 13.0717 14.9969 13.9994 14.9969C14.9271 14.9969 15.8168 14.6282 16.4728 13.972C17.1288 13.3159 17.4973 12.4259 17.4973 11.4979ZM12.0006 11.4979C12.0006 10.9676 12.2112 10.4591 12.586 10.0841C12.9609 9.70916 13.4693 9.4985 13.9994 9.4985C14.5295 9.4985 15.0379 9.70916 15.4128 10.0841C15.7876 10.4591 15.9982 10.9676 15.9982 11.4979C15.9982 12.0282 15.7876 12.5367 15.4128 12.9117C15.0379 13.2867 14.5295 13.4973 13.9994 13.4973C13.4693 13.4973 12.9609 13.2867 12.586 12.9117C12.2112 12.5367 12.0006 12.0282 12.0006 11.4979ZM5.66641 12.2697L6.27804 12.0697C6.45908 12.009 6.62409 11.9082 6.76075 11.7748C6.82991 11.7045 6.89062 11.6263 6.94164 11.5419C6.99089 11.4603 7.03079 11.3735 7.06057 11.283L7.26045 10.6711C7.27711 10.6241 7.3078 10.5833 7.34839 10.5542C7.36406 10.5435 7.3808 10.5344 7.39836 10.5272C7.42706 10.5161 7.45754 10.5103 7.48831 10.5102C7.5383 10.5105 7.58704 10.5259 7.62823 10.5542C7.64248 10.5651 7.65584 10.5771 7.6682 10.5902C7.68906 10.614 7.70532 10.6414 7.71617 10.6711L7.91605 11.283C7.97646 11.4686 8.07909 11.6376 8.21587 11.7768C8.35479 11.9151 8.52374 12.0195 8.70958 12.0817L9.32221 12.2817H9.3342C9.34948 12.2869 9.3642 12.2936 9.37818 12.3017C9.40685 12.3191 9.43167 12.3423 9.45113 12.3696C9.48004 12.4106 9.49542 12.4595 9.4951 12.5096C9.49527 12.5594 9.4799 12.6079 9.45113 12.6486C9.42236 12.6894 9.38145 12.7202 9.3342 12.7365L8.72157 12.9365C8.53621 12.9973 8.36729 13.0999 8.22787 13.2364C8.09142 13.3759 7.98885 13.5448 7.92805 13.7302L7.72817 14.342C7.71186 14.3893 7.68109 14.4302 7.64022 14.459C7.59903 14.4873 7.55029 14.5027 7.5003 14.503C7.4506 14.5028 7.40213 14.4875 7.36139 14.459C7.32051 14.43 7.28948 14.3892 7.27244 14.342L7.07256 13.7302C7.01283 13.5426 6.91017 13.3714 6.77274 13.2304C6.63378 13.0914 6.46442 12.9867 6.27804 12.9245L5.66641 12.7245C5.61916 12.7082 5.57824 12.6774 5.54948 12.6366C5.52027 12.5957 5.50455 12.5468 5.5045 12.4966C5.50469 12.4467 5.52041 12.3982 5.54948 12.3576C5.57824 12.3168 5.61916 12.286 5.66641 12.2697Z" fill="#212121"/>
</svg>

<svg viewBox="0 0 28 28" fill="none" xmlns="http://www.w3.org/2000/svg" height="1em" width="1em">
  <path d="M2.227 8.78a2.25 2.25 0 0 0-.216-.171l-.008-.011a2.214 2.214 0 0 0-.65-.365l-1.07-.348A.425.425 0 0 1 0 7.486a.419.419 0 0 1 .283-.399l1.07-.348a2.2 2.2 0 0 0 .739-.445.675.675 0 0 1 .05-.039.5.5 0 0 0 .064-.053c.231-.235.407-.52.514-.832l.01-.027.348-1.07a.422.422 0 0 1 .399-.279.42.42 0 0 1 .244.078.425.425 0 0 1 .119.156c.004.008.01.015.017.022.007.008.015.016.019.026l.347 1.07c.04.104.085.204.138.3a2.2 2.2 0 0 0 .4.568c.243.243.539.426.865.533l1.07.348.022.006a.422.422 0 0 1 .278.4.43.43 0 0 1-.278.399l-1.071.347A2.2 2.2 0 0 0 4.25 9.644l-.35 1.07-.01.026a.429.429 0 0 1-.143.178.418.418 0 0 1-.485-.001.418.418 0 0 1-.155-.2l-.348-1.07a2.218 2.218 0 0 0-.532-.867ZM5.006 4h17.989A2.997 2.997 0 0 1 26 7v13.995a3 3 0 0 1-2.998 3H5.012a2.998 2.998 0 0 1-2.998-3V10.577l.146.449a1.425 1.425 0 0 0 1.35.972v8.997a1.5 1.5 0 0 0 1.499 1.5h3.244v-4a2 2 0 0 1 1.998-1.999h7.496a1.998 1.998 0 0 1 1.999 2v3.999h3.249a1.499 1.499 0 0 0 1.499-1.5V6.999a1.5 1.5 0 0 0-1.5-1.5H5.466a1.2 1.2 0 0 1-.288-.461l-.332-1.02a.773.773 0 0 0 .071-.01c.03-.004.059-.008.09-.008Zm4.746 18.495h8.495v-4a.5.5 0 0 0-.5-.5h-7.495a.5.5 0 0 0-.5.5v4Zm7.745-10.997a3.5 3.5 0 0 0-5.971-2.474 3.5 3.5 0 0 0 4.947 4.948 3.5 3.5 0 0 0 1.024-2.474Zm-5.496 0a2 2 0 1 1 4 0 2 2 0 0 1-4 0Zm-6.335.772.612-.2c.181-.061.346-.162.483-.295a1.266 1.266 0 0 0 .3-.492l.2-.612a.244.244 0 0 1 .137-.144.25.25 0 0 1 .27.063.256.256 0 0 1 .048.081l.2.612c.06.186.163.355.3.494.139.138.308.243.494.305l.612.2h.012a.247.247 0 0 1 .117.088.24.24 0 0 1 0 .279.238.238 0 0 1-.117.088l-.612.2c-.186.06-.355.163-.494.3-.137.139-.24.308-.3.493l-.2.612a.238.238 0 0 1-.228.161.244.244 0 0 1-.228-.161l-.2-.612a1.267 1.267 0 0 0-.3-.5 1.266 1.266 0 0 0-.494-.306l-.612-.2a.241.241 0 0 1 0-.455Z" fill="#212121"/>
</svg>
